X:627
T:Reel 627
M:4/4
K:Gmaj
L:1/8
ge|dGBG FGAc|BGBd g2fe|dGBG FGAc|BGAF G2:|d2|g2ge fgaf|g2ge a2dc'|b>g (3gfg agfa|gedB A2G2|B>g (3gfg egfe|d>G (3GFG Addc'|bgaf gedc|BcAB G2|
